web/public/images/svg/changa_calculator.svg

<svg id="icons" xmlns="http://www.w3.org/2000/svg" viewBox="0 0 64 64"><title>changa_calculator</title><path id="_Compound_Path_" data-name="&lt;Compound Path&gt;" d="M49.54,0H14.46a3,3,0,0,0-3,3V61a3,3,0,0,0,3,3H49.54a3,3,0,0,0,3-3V3A3,3,0,0,0,49.54,0ZM22.78,57.84H17.17V52.23h5.61Zm0-7.59H17.17V44.63h5.61Zm0-7.59H17.17V37h5.61Zm0-7.59H17.17V29.45h5.61Zm0-7.59H17.17v-4h5.61Zm8,30.37H25.19V52.23H30.8Zm0-7.59H25.19V44.63H30.8Zm0-7.59H25.19V37H30.8Zm0-7.59H25.19V29.45H30.8Zm0-7.59H25.19v-4H30.8Zm8,30.37H33.2V52.23h5.61Zm0-7.59H33.2V44.63h5.61Zm0-7.59H33.2V37h5.61Zm0-7.59H33.2V29.45h5.61Zm0-7.59H33.2v-4h5.61Zm8,19.59V57.84H41.22V44.63h5.61Zm0-17.61v5.61H41.22V29.45Zm-5.61-2v-4h5.61v4ZM46.83,37v5.61H41.22V37Zm2.08-23.4H15.09V6.93H48.91Z"/></svg>

<?xml version="1.0" encoding="utf-8"?>
<!-- Generator: Adobe Illustrator 21.0.2, SVG Export Plug-In . SVG Version: 6.00 Build 0)  -->
<svg version="1.1" id="icons" xmlns="http://www.w3.org/2000/svg" xmlns:xlink="http://www.w3.org/1999/xlink" x="0px" y="0px"
	 viewBox="0 0 64 64" style="enable-background:new 0 0 64 64;" xml:space="preserve">
<style type="text/css">
	.st0{stroke:#FFFFFF;stroke-width:0;stroke-linecap:round;stroke-linejoin:round;}
	.st1{fill:none;stroke:#000000;stroke-width:1.5;stroke-miterlimit:10;}
</style>
<path id="XMLID_79_" d="M49.5,0H14.5c-1.7,0-3,1.4-3,3v58c0,1.7,1.4,3,3,3h35.1c1.7,0,3-1.4,3-3V3C52.6,1.4,51.2,0,49.5,0z
	 M22.8,57.8h-5.6v-5.6h5.6V57.8z M22.8,50.2h-5.6v-5.6h5.6V50.2z M22.8,42.7h-5.6V37h5.6V42.7z M22.8,35.1h-5.6v-5.6h5.6V35.1z
	 M22.8,27.5h-5.6v-4h5.6V27.5z M30.8,57.8h-5.6v-5.6h5.6V57.8z M30.8,50.2h-5.6v-5.6h5.6V50.2z M30.8,42.7h-5.6V37h5.6V42.7z
	 M30.8,35.1h-5.6v-5.6h5.6V35.1z M30.8,27.5h-5.6v-4h5.6V27.5z M38.8,57.8h-5.6v-5.6h5.6V57.8z M38.8,50.2h-5.6v-5.6h5.6V50.2z
	 M38.8,42.7h-5.6V37h5.6V42.7z M38.8,35.1h-5.6v-5.6h5.6V35.1z M38.8,27.5h-5.6v-4h5.6V27.5z M46.8,47.1v3.2v7.6h-5.6v-7.6v-3.2
	v-2.4h5.6V47.1z M46.8,29.4v5.6h-5.6v-5.6H46.8z M41.2,27.5v-4h5.6v4H41.2z M46.8,37v5.6h-5.6V37H46.8z M48.9,13.6H15.1V6.9h33.8
	V13.6z"/>
</svg>
